Numix/16/mimetypes/application-x-gambas3.svg

<?xml version="1.0" encoding="UTF-8" standalone="no"?>
<svg
   xmlns:dc="http://purl.org/dc/elements/1.1/"
   xmlns:cc="http://creativecommons.org/ns#"
   xmlns:rdf="http://www.w3.org/1999/02/22-rdf-syntax-ns#"
   xmlns:svg="http://www.w3.org/2000/svg"
   xmlns="http://www.w3.org/2000/svg"
   xmlns:sodipodi="http://sodipodi.sourceforge.net/DTD/sodipodi-0.dtd"
   xmlns:inkscape="http://www.inkscape.org/namespaces/inkscape"
   viewBox="0 0 16 16"
   id="svg2"
   version="1.1"
   inkscape:version="0.91 r13725"
   sodipodi:docname="application-x-gambas3b-3a2.svg">
  <metadata
     id="metadata16">
    <rdf:RDF>
      <cc:Work
         rdf:about="">
        <dc:format>image/svg+xml</dc:format>
        <dc:type
           rdf:resource="http://purl.org/dc/dcmitype/StillImage" />
        <dc:title></dc:title>
      </cc:Work>
    </rdf:RDF>
  </metadata>
  <defs
     id="defs14" />
  <sodipodi:namedview
     pagecolor="#ffffff"
     bordercolor="#666666"
     borderopacity="1"
     objecttolerance="10"
     gridtolerance="10"
     guidetolerance="10"
     inkscape:pageopacity="0"
     inkscape:pageshadow="2"
     inkscape:window-width="1366"
     inkscape:window-height="704"
     id="namedview12"
     showgrid="false"
     inkscape:zoom="45.254834"
     inkscape:cx="7.0323346"
     inkscape:cy="7.6610146"
     inkscape:window-x="0"
     inkscape:window-y="27"
     inkscape:window-maximized="1"
     inkscape:current-layer="svg2"
     inkscape:object-nodes="true">
    <inkscape:grid
       type="xygrid"
       id="grid4152" />
  </sodipodi:namedview>
  <path
     d="m 2.668 0 c -0.344 0 -0.668 0.338 -0.668 0.697 l 0 14.607 c 0 0.338 0.344 0.697 0.668 0.697 l 10.664 0 c 0.324 0 0.668 -0.359 0.668 -0.697 l 0 -11.304 -4 -4 z"
     style="fill:#3398c3;fill-opacity:1"
     id="path4" />
  <path
     d="m 10.583 3.332 0.015 0.02 0.04 -0.02 z m 0.03 0.668 3.387 3.664 0 -3.664 z"
     style="fill:#000;fill-opacity:0.196"
     id="path6" />
  <path
     d="m 10 0 3.996 4 -3.384 0 c -0.299 0 -0.613 -0.317 -0.613 -0.616 z"
     style="fill:#fff;fill-opacity:0.392"
     id="path8" />
  <path
     style="opacity:1;fill:#ffffff;fill-opacity:1;stroke:none"
     d="m 6.9492188,6 c -1.1869545,8.626e-4 -2.1486535,0.9634358 -2.1484376,2.1503906 4.402e-4,0.1198032 0.010893,0.23936 0.03125,0.3574219 C 4.3287572,8.835735 4,9.3544683 4,10.199219 4,11.610613 5.3331159,13 6.8886719,13 9.7775609,13 12,10 12,6 11.32904,6.8386997 10.655074,7.5489053 9.0761719,7.8476562 8.9257081,6.7883221 8.0191849,6.0008372 6.9492188,6 Z M 6.9003906,7 C 7.5075988,7.0002156 7.9997844,7.4924012 8,8.0996094 7.9997844,8.7068176 7.5075988,9.1990032 6.9003906,9.1992188 6.2931824,9.1990032 5.8009968,8.7068176 5.8007812,8.0996094 5.8009968,7.4924012 6.2931824,7.0002156 6.9003906,7 Z M 10,10 C 10,10.222222 8.4446611,12 7.1113281,12 5.8888841,12 5.2324219,11.091533 5.2324219,10.232422 6.5657559,11.477934 8.888889,10.666667 10,10 Z"
     id="circle6"
     inkscape:connector-curvature="0"
     sodipodi:nodetypes="cccsscccccccccscc" />
  <circle
     r="0.60000002"
     cy="7.6999998"
     cx="7.3000002"
     id="circle4139"
     style="opacity:1;fill:#ffffff;fill-opacity:1;stroke:none;stroke-width:2;stroke-linecap:butt;stroke-linejoin:miter;stroke-miterlimit:4;stroke-dasharray:none;stroke-opacity:1" />
</svg>

<svg xmlns="http://www.w3.org/2000/svg" viewBox="0 0 16 16">
 <path d="m 2.668 0 c -0.344 0 -0.668 0.338 -0.668 0.697 l 0 14.607 c 0 0.338 0.344 0.697 0.668 0.697 l 10.664 0 c 0.324 0 0.668 -0.359 0.668 -0.697 l 0 -11.304 -4 -4 z" style="fill:#3398c3;fill-opacity:1"/>
 <path d="m 10.583 3.332 0.015 0.02 0.04 -0.02 z m 0.03 0.668 3.387 3.664 0 -3.664 z" style="fill:#000;fill-opacity:0.196"/>
 <path d="m 10 0 3.996 4 -3.384 0 c -0.299 0 -0.613 -0.317 -0.613 -0.616 z" style="fill:#fff;fill-opacity:0.392"/>
 <path d="m 6.949 6 c -1.187 0.001 -2.149 0.963 -2.148 2.15 0 0.12 0.011 0.239 0.031 0.357 c -0.503 0.328 -0.832 0.847 -0.832 1.691 0 1.411 1.333 2.801 2.889 2.801 2.889 0 5.111 -3 5.111 -7 -0.671 0.839 -1.345 1.549 -2.924 1.848 -0.15 -1.059 -1.057 -1.847 -2.127 -1.848 m -0.049 1 c 0.607 0 1.099 0.492 1.1 1.1 0 0.607 -0.492 1.099 -1.1 1.1 -0.607 0 -1.099 -0.492 -1.1 -1.1 0 -0.607 0.492 -1.099 1.1 -1.1 m 3.1 3 c 0 0.222 -1.555 2 -2.889 2 -1.222 0 -1.879 -0.908 -1.879 -1.768 1.333 1.246 3.656 0.434 4.768 -0.232" style="fill:#fff;opacity:1;fill-opacity:1;stroke:none"/>
 <circle r="0.6" cy="7.7" cx="7.3" style="fill:#fff;opacity:1;fill-opacity:1;stroke:none"/>
</svg>
